usr/share/icons/biglinux-icons-material-dark/22/actions/view-barcode-add.svg

<svg xmlns="http://www.w3.org/2000/svg" viewBox="0 0 22 22">
<defs id="defs3051">
<style id="current-color-scheme" type="text/css">
.ColorScheme-Text{color:#dedede}
</style>
</defs>
<path d="M3 6v10h1V6zm2 0v7h1V6zm2 0v10h1V6zm2 0v10h2V6zm3 0v10h1v-3h1V6zm3 0v5h1V6zm2 0v7h2V6zm-1 8v2h-2v1h2v2h1v-2h2v-1h-2v-2z" class="ColorScheme-Text" style="fill:currentColor;fill-opacity:1;stroke:none"/>
</svg>

<svg xmlns="http://www.w3.org/2000/svg" viewBox="0 0 22 22">
  <defs id="defs3051">
    <style type="text/css" id="current-color-scheme">
      .ColorScheme-Text {
        color:#dedede;
      }
      </style>
  </defs>
 <path 
    style="fill:currentColor;fill-opacity:1;stroke:none" 
    d="M 3 6 L 3 16 L 4 16 L 4 6 L 3 6 z M 5 6 L 5 13 L 6 13 L 6 6 L 5 6 z M 7 6 L 7 16 L 8 16 L 8 6 L 7 6 z M 9 6 L 9 16 L 11 16 L 11 6 L 9 6 z M 12 6 L 12 16 L 13 16 L 13 13 L 14 13 L 14 6 L 12 6 z M 15 6 L 15 11 L 16 11 L 16 6 L 15 6 z M 17 6 L 17 13 L 19 13 L 19 6 L 17 6 z M 16 14 L 16 16 L 14 16 L 14 17 L 16 17 L 16 19 L 17 19 L 17 17 L 19 17 L 19 16 L 17 16 L 17 14 L 16 14 z "
	class="ColorScheme-Text"
    />  
</svg>
